!!!COM:	Bach, Johann Sebastian
!!!CDT:	1685/02/21/-1750/07/28/
!!!OTL@@DE:	Wenn mein St&uuml;ndlein vorhanden ist
!!!SCT:	BWV 430
!!!PC#:	351
!!!AGN:	chorale
**kern	**kern	**kern	**kern
*ICvox	*ICvox	*ICvox	*ICvox
*Ibass	*Itenor	*Ialto	*Isoprn
*I"Bass	*I"Tenor	*I"Alto	*I"Soprano
*clefF4	*clefGv2	*clefG2	*clefG2
*k[f#c#g#]	*k[f#c#g#]	*k[f#c#g#]	*k[f#c#g#]
*A:	*A:	*A:	*A:
*M4/4	*M4/4	*M4/4	*M4/4
*met(c)	*met(c)	*met(c)	*met(c)
*MM100	*MM100	*MM100	*MM100
8AAL	4E	8c#L	4a
8BBJ	.	8dJ	.
=1	=1	=1	=1
4C#	4A	4e	4e
4D#	8G#L	4B	4f#
.	8F#J	.	.
4E#	4c#	4B	4g#
4F#	4c#	4A	4a
=2	=2	=2	=2
4G#	4B	4enX	4b
4A	8AL	4e	4cc#
.	8GJ	.	.
4DnX;	4F#;	4d;	4a;
8AL	4A	4e	8cc#L
8BJ	.	.	8ddJ
=3	=3	=3	=3
8c#L	8G#XL	4e	4ee
8BJ	8AJ	.	.
8AL	4B	4e	4ee
8G#J	.	.	.
4A	8AL	4e	8cc#L
.	8BJ	.	8ddJ
4A#	4c#	4f#	4ee
=4	=4	=4	=4
4B	8BL	8f#L	2dd
.	8c#J	8e#J	.
4BB	8dL	8f#L	.
.	8enXJ	8g#J	.
4F#;	4f#;	4a;	4cc#;
[4A	4e	4a	4cc#
=5	=5	=5	=5
8A]	8f#	4b	4dd
4G#	4e	.	.
.	.	4a	4cc#
4F#	4d	.	.
.	.	4g#	4b
8E#	8c#	.	.
8F#L	8c#L	4f#	8aL
8DJ	8BJ	.	8bJ
=6	=6	=6	=6
8AAL	4A	4.f#	4cc#
8BBJ	.	.	.
4C#	4G#	.	4cc#
.	.	8e#	.
4FF#;	4F#;	4c#;	4a;
4F#	4A	4f#	8cc#L
.	.	.	8ddJ
=7	=7	=7	=7
8G#L	8BL	8enXL	4ee
8F#J	8AJ	8f#J	.
4E	8BL	4g#	4ee
.	8eJ	.	.
4A	4.e	4.a	8cc#L
.	.	.	8ddJ
4C#	.	.	4ee
.	8e	8a	.
=8	=8	=8	=8
4BB	8f#L	8aL	2dd
.	8dJ	16g#L	.
.	.	16f#JJ	.
4E	8BL	4g#	.
.	8eJ	.	.
4AA;	4e;	4a;	4cc#;
[4A	4e	4a	4cc#
=9	=9	=9	=9
2A_	8f#L	8aL	4dd
.	8BJ	8g#J	.
.	8c#L	4a	4cc#
.	8dJ	.	.
8AL]	4.e	4.e	4b
8G#J	.	.	.
8c#L	.	.	8aL
8BJ	8d	16f#LL	8bJ
.	.	16g#JJ	.
=10	=10	=10	=10
8A	4e	4a	4cc#
4AA	.	.	.
.	4e	4g	4cc#
16BBLL	.	.	.
16C#JJ	.	.	.
4D;	4d;	4f#;	4a;
4GG#X	4B	4e	4b
=11	=11	=11	=11
8AAL	8AL	8eL	4cc#
8EJ	8G#J	8g#J	.
[4A	8AL	8f#L	4cc#
.	8c#J	8eJ	.
8AL]	4B	4d#	4f#
8G#J	.	.	.
8F#L	4B	4e	4g#
8EJ	.	.	.
=12	=12	=12	=12
8D#L	4B	8f#	8aL
8EJ	.	4e	8g#J
8AL	8c#L	.	4f#
8BJ	8F#J	8d#	.
4E;	4G#;	4e;	4e;
8EL	8G#L	4B	4e
8DJ	16AL	.	.
.	16BJJ	.	.
=13	=13	=13	=13
8C#L	4E	4e	4a
8BB	.	.	.
8AA	4B	4e	4b
8GG#J	.	.	.
8AAL	4.A	8eL	4.cc#
16BBL	.	16dnXL	.
16C#JJ	.	16eJJ	.
[4D	.	[4f#	.
.	16G#LL	.	16bLL
.	16AJJ	.	16cc#JJ
=14	=14	=14	=14
8DL]	8BL	8f#L]	4dd
16C#L	8BJ	8g#J	.
16BBJJ	.	.	.
8F#L	8c#L	4.a	4cc#
8EJ	16dL	.	.
.	16eJJ	.	.
8DL	8f#L	.	2b
8BBJ	8dJ	16g#LL	.
.	.	16f#JJ	.
4E	8BL	4g#	.
.	8eJ	.	.
=15	=15	=15	=15
2.AA;	2.c#;	2.e;	2.a;
==	==	==	==
*-	*-	*-	*-
!!!hum2abc: -Q ''
!!!title: @{PC#}. @{OTL@@DE}
!!!YOR1: 371 vierstimmige Choralges&auml;nge von Johann Sebastian Bach, 
!!!YOR2: 4th ed. by Alfred D&ouml;rffel (Leipzig: Breitkopf und H&auml;rtel, 
!!!YOR2: c.1875). 178 pp. Plate "V.A.10".  reprint: J.S. Bach, 371 Four-Part 
!!!YOR4: Chorales (New York: Associated Music Publishers, Inc., c.1940).
!!!SMS: B&H, 4th ed, Alfred D&ouml;rffel, c.1875, plate V.A.10
!!!EED:  Craig Stuart Sapp
!!!EEV:  2009/05/22
